X:430
T: BALD SINKT NUN DER MITTERNACHT
N: F0799
O: Europa, Mitteleuropa, Deutschland
R: Geselligkeits -, Moral - Lied
M: 2/4
L: 1/16
K: G
G3G | A2A2B2B2 | A4
c3c | B2dcB2A2 | G2z2
G3G | A2A2B2B2 | A4
c3c | B2dcB2A2 | G2z2
d3d | A2A2B2d2 | A4
d2d2 | dcedc2B2 | A4
G3A | B2A2B3c | d4
c3c | B2cAG2F2 | G4

@@@ Tune index: 5861
